X: 351
T: Da mafang
L: 1/8
M: 2/4
K: F
d d/ c/ d c [I:setbarnb 1]| 
d d/ f/c2 | 
d d/ f/ c d/ c/ | 
B A/ c/G2 | 
c> G c c | 
G> A G F | 
E G D F | 
C2F G | 
E DC2 |]

@@@ Tune index: 9225
